Catalina-dark/actions/22/news-unsubscribe.svg

<svg xmlns="http://www.w3.org/2000/svg" viewBox="0 0 22 22">
  <defs id="defs3051">
    <style type="text/css" id="current-color-scheme">
      .ColorScheme-NegativeText {
        color:#da4453;
      }
      </style>
  </defs>
 <path 
     style="fill:currentColor;fill-opacity:1;stroke:none"      
	 class="ColorScheme-NegativeText"
        d="M 4.5234375 3 C 4.1033062 3 3.74483 3.1497012 3.4472656 3.4472656 C 3.1496726 3.7448586 3 4.1033062 3 4.5234375 C 3 4.9435688 3.1496726 5.3020164 3.4472656 5.5996094 C 3.7448586 5.8972022 4.1033062 6.046875 4.5234375 6.046875 C 5.5737657 6.046875 6.5860757 6.1827789 7.5605469 6.4570312 C 8.535018 6.7312836 9.4449179 7.1172929 10.291016 7.6132812 C 11.137142 8.1092696 11.90715 8.7040539 12.601562 9.3984375 C 13.296032 10.092821 13.89073 10.862858 14.386719 11.708984 C 14.882707 12.555082 15.268716 13.465096 15.542969 14.439453 C 15.817221 15.41401 15.955078 16.426148 15.955078 17.476562 C 15.955078 17.896694 16.102855 18.255141 16.400391 18.552734 C 16.698069 18.850356 17.056403 19 17.476562 19 C 17.896694 19 18.255141 18.850413 18.552734 18.552734 C 18.850327 18.255056 19 17.896694 19 17.476562 C 19 16.146032 18.828678 14.865955 18.484375 13.634766 C 18.140015 12.403519 17.651595 11.251489 17.021484 10.177734 C 16.391259 9.1040655 15.636939 8.1252493 14.755859 7.2441406 C 13.874665 6.363032 12.895963 5.6087125 11.822266 4.9785156 C 10.748625 4.3483187 9.5964524 3.8598992 8.3652344 3.515625 C 7.1340163 3.1713508 5.8538529 3 4.5234375 3 z M 4.5234375 8.7597656 C 4.1033062 8.7597656 3.7448586 8.9074279 3.4472656 9.2050781 C 3.1496726 9.5026711 3 9.8630718 3 10.283203 C 3 10.703334 3.1496726 11.061753 3.4472656 11.359375 C 3.7448586 11.656968 4.1033062 11.804688 4.5234375 11.804688 C 5.3053485 11.804687 6.0399671 11.954417 6.7285156 12.251953 C 7.4170641 12.549546 8.0177562 12.955228 8.53125 13.46875 C 9.0447438 13.982215 9.4504539 14.582936 9.7480469 15.271484 C 10.04564 15.960033 10.195312 16.694594 10.195312 17.476562 C 10.195313 17.896694 10.343032 18.255141 10.640625 18.552734 C 10.938218 18.850356 11.296666 19 11.716797 19 C 12.137043 19 12.497329 18.850327 12.794922 18.552734 C 13.092486 18.255056 13.240234 17.896694 13.240234 17.476562 C 13.240234 16.274406 13.009834 15.146122 12.548828 14.089844 C 12.087879 13.033738 11.463556 12.111994 10.675781 11.324219 C 9.8880351 10.536473 8.9663196 9.9121493 7.9101562 9.4511719 C 6.8539929 8.9901945 5.7254798 8.7597656 4.5234375 8.7597656 z M 5.1875 14.623047 C 4.8840719 14.623047 4.6044031 14.678223 4.3476562 14.789062 C 4.0909094 14.899959 3.8663883 15.053534 3.6738281 15.246094 C 3.481268 15.438597 3.329618 15.665038 3.21875 15.927734 C 3.107882 16.190231 3.0527344 16.468094 3.0527344 16.759766 C 3.0527344 17.063222 3.107882 17.342834 3.21875 17.599609 C 3.329618 17.856385 3.481268 18.080877 3.6738281 18.273438 C 3.8663883 18.465883 4.0909094 18.617676 4.3476562 18.728516 C 4.6044031 18.839298 4.8840719 18.894531 5.1875 18.894531 C 5.4792578 18.894531 5.7569495 18.839355 6.0195312 18.728516 C 6.2821133 18.617619 6.5105648 18.465912 6.703125 18.273438 C 6.8956852 18.080849 7.0473351 17.856442 7.1582031 17.599609 C 7.2690711 17.342834 7.3242188 17.063222 7.3242188 16.759766 C 7.3242188 16.468036 7.2690711 16.190259 7.1582031 15.927734 C 7.0473351 15.665124 6.8956852 15.438597 6.703125 15.246094 C 6.5105648 15.053534 6.2821133 14.899959 6.0195312 14.789062 C 5.7569495 14.678223 5.4792578 14.623047 5.1875 14.623047 z "
     />
</svg>

<svg viewBox="0 0 22 22" xmlns="http://www.w3.org/2000/svg">
<defs>
<style id="current-color-scheme" type="text/css">.ColorScheme-NegativeText {
        color:#da4453;
      }</style>
</defs>
<path class="ColorScheme-NegativeText" d="m4.5234 3c-0.42013 0-0.77861 0.1497-1.0762 0.44727-0.29759 0.29759-0.44727 0.65604-0.44727 1.0762s0.14967 0.77858 0.44727 1.0762c0.29759 0.29759 0.65604 0.44727 1.0762 0.44727 1.0503 0 2.0626 0.1359 3.0371 0.41016 0.97447 0.27425 1.8844 0.66026 2.7305 1.1562 0.84613 0.49599 1.6161 1.0908 2.3105 1.7852 0.69447 0.69438 1.2892 1.4644 1.7852 2.3105 0.49599 0.8461 0.882 1.7561 1.1562 2.7305 0.27425 0.97456 0.41211 1.9867 0.41211 3.0371 0 0.42013 0.14778 0.77858 0.44531 1.0762 0.29768 0.29762 0.65601 0.44727 1.0762 0.44727 0.42013 0 0.77858-0.14959 1.0762-0.44727 0.29759-0.29768 0.44727-0.65604 0.44727-1.0762 0-1.3305-0.17132-2.6106-0.51562-3.8418-0.34436-1.2312-0.83278-2.3833-1.4629-3.457-0.63022-1.0737-1.3845-2.0525-2.2656-2.9336-0.88119-0.88111-1.8599-1.6354-2.9336-2.2656-1.0736-0.6302-2.2258-1.1186-3.457-1.4629-1.2312-0.34427-2.5114-0.51562-3.8418-0.51562zm0 5.7598c-0.42013 0-0.77858 0.14766-1.0762 0.44531-0.29759 0.29759-0.44727 0.65799-0.44727 1.0781 0 0.42013 0.14967 0.77855 0.44727 1.0762 0.29759 0.29759 0.65604 0.44531 1.0762 0.44531 0.78191-1e-6 1.5165 0.14973 2.2051 0.44726 0.68855 0.29759 1.2892 0.70328 1.8027 1.2168 0.51349 0.51346 0.9192 1.1142 1.2168 1.8027 0.29759 0.68855 0.44727 1.4231 0.44727 2.2051 1e-6 0.42013 0.14772 0.77858 0.44531 1.0762 0.29759 0.29762 0.65604 0.44727 1.0762 0.44727 0.42025 0 0.78053-0.14967 1.0781-0.44727 0.29756-0.29768 0.44531-0.65604 0.44531-1.0762 0-1.2022-0.2304-2.3304-0.69141-3.3867-0.46095-1.0561-1.0853-1.9778-1.873-2.7656-0.78775-0.78775-1.7095-1.4121-2.7656-1.873-1.0562-0.46098-2.1847-0.69141-3.3867-0.69141zm0.66406 5.8633c-0.30343 0-0.5831 0.055176-0.83984 0.16602-0.25675 0.1109-0.48127 0.26447-0.67383 0.45703-0.19256 0.1925-0.34421 0.41894-0.45508 0.68164-0.11087 0.2625-0.16602 0.54036-0.16602 0.83203 0 0.30346 0.055148 0.58307 0.16602 0.83984 0.11087 0.25678 0.26252 0.48127 0.45508 0.67383 0.19256 0.19244 0.41708 0.34424 0.67383 0.45508 0.25675 0.11078 0.53642 0.16602 0.83984 0.16602 0.29176 0 0.56945-0.055176 0.83203-0.16602 0.26258-0.1109 0.49103-0.2626 0.68359-0.45508 0.19256-0.19259 0.34421-0.417 0.45508-0.67383 0.11087-0.25678 0.16602-0.53639 0.16602-0.83984 0-0.29173-0.055148-0.56951-0.16602-0.83203-0.11087-0.26261-0.26252-0.48914-0.45508-0.68164-0.19256-0.19256-0.42101-0.34614-0.68359-0.45703-0.26258-0.11084-0.54027-0.16602-0.83203-0.16602z" fill="currentColor"/>
</svg>
